src/img/trash-03.svg

<svg width="18" height="18" viewBox="0 0 18 18" fill="none" xmlns="http://www.w3.org/2000/svg">
<g id="trash-03">
<path id="Icon" d="M6.75 2.25H11.25M2.25 4.5H15.75M14.25 4.5L13.724 12.3895C13.6451 13.5732 13.6057 14.165 13.35 14.6138C13.1249 15.0088 12.7854 15.3265 12.3762 15.5248C11.9115 15.75 11.3183 15.75 10.132 15.75H7.86799C6.68168 15.75 6.08852 15.75 5.62375 15.5248C5.21457 15.3265 4.87507 15.0088 4.64999 14.6138C4.39433 14.165 4.35488 13.5732 4.27596 12.3895L3.75 4.5M7.5 7.875V11.625M10.5 7.875V11.625" stroke="white" stroke-width="1.5" stroke-linecap="round" stroke-linejoin="round"/>
</g>
</svg>

<svg xmlns="http://www.w3.org/2000/svg" width="18" height="18" fill="none"><path stroke="#fff" stroke-linecap="round" stroke-linejoin="round" stroke-width="1.5" d="M6.75 2.25h4.5m-9 2.25h13.5m-1.5 0-.526 7.89c-.079 1.183-.118 1.775-.374 2.224a2.25 2.25 0 0 1-.974.91c-.464.226-1.058.226-2.244.226H7.868c-1.186 0-1.78 0-2.244-.225a2.25 2.25 0 0 1-.974-.911c-.256-.449-.295-1.04-.374-2.225L3.75 4.5M7.5 7.875v3.75m3-3.75v3.75"/></svg>
